img/speech-note.svg

<?xml version="1.0" encoding="UTF-8"?>
<!DOCTYPE svg PUBLIC "-//W3C//DTD SVG 1.1//EN" "http://www.w3.org/Graphics/SVG/1.1/DTD/svg11.dtd">
<svg xmlns="http://www.w3.org/2000/svg" version="1.1" width="128px" height="128px" style="shape-rendering:geometricPrecision; text-rendering:geometricPrecision; image-rendering:optimizeQuality; fill-rule:evenodd; clip-rule:evenodd" xmlns:xlink="http://www.w3.org/1999/xlink">
<g><path style="opacity:0.986" fill="#f1f1f1" d="M 113.5,6.5 C 113.5,10.8333 113.5,15.1667 113.5,19.5C 79.5,19.5 45.5,19.5 11.5,19.5C 11.5,15.1667 11.5,10.8333 11.5,6.5C 45.5,6.5 79.5,6.5 113.5,6.5 Z"/></g>
<g><path style="opacity:0.405" fill="#1c1c1c" d="M 114.5,6.5 C 115.458,6.9528 116.292,7.61947 117,8.5C 117.5,45.8318 117.667,83.1652 117.5,120.5C 116.5,120.5 115.5,120.5 114.5,120.5C 114.5,119.5 114.5,118.5 114.5,117.5C 114.5,80.5 114.5,43.5 114.5,6.5 Z"/></g>
<g><path style="opacity:1" fill="#a2a2a2" d="M 74.5,9.5 C 76.3464,9.22216 77.6798,9.88882 78.5,11.5C 76.4733,12.6933 74.9733,14.36 74,16.5C 71.9176,13.9738 72.0843,11.6405 74.5,9.5 Z"/></g>
<g><path style="opacity:1" fill="#a1a1a1" d="M 47.5,9.5 C 53.1044,9.67569 53.6044,11.009 49,13.5C 48.0658,17.2821 47.2325,17.1154 46.5,13C 46.6483,11.7441 46.9816,10.5774 47.5,9.5 Z"/></g>
<g><path style="opacity:1" fill="#a4a4a4" d="M 21.5,9.5 C 27.1044,9.67569 27.6044,11.009 23,13.5C 22.0658,17.2821 21.2325,17.1154 20.5,13C 20.6483,11.7441 20.9816,10.5774 21.5,9.5 Z"/></g>
<g><path style="opacity:1" fill="#a3a3a3" d="M 100.5,9.5 C 102.681,9.28366 104.347,10.117 105.5,12C 102.768,12.3981 100.935,13.8981 100,16.5C 98.0296,14.0367 98.1963,11.7034 100.5,9.5 Z"/></g>
<g><path style="opacity:1" fill="#bfbfbf" d="M 113.5,6.5 C 113.833,6.5 114.167,6.5 114.5,6.5C 114.5,43.5 114.5,80.5 114.5,117.5C 80.1667,117.5 45.8333,117.5 11.5,117.5C 11.5,117.167 11.5,116.833 11.5,116.5C 45.5,116.5 79.5,116.5 113.5,116.5C 113.5,84.8333 113.5,53.1667 113.5,21.5C 79.5,21.5 45.5,21.5 11.5,21.5C 11.5,20.8333 11.5,20.1667 11.5,19.5C 45.5,19.5 79.5,19.5 113.5,19.5C 113.5,15.1667 113.5,10.8333 113.5,6.5 Z"/></g>
<g><path style="opacity:0.997" fill="#f0f1f1" d="M 11.5,21.5 C 45.5,21.5 79.5,21.5 113.5,21.5C 113.5,53.1667 113.5,84.8333 113.5,116.5C 79.5,116.5 45.5,116.5 11.5,116.5C 11.5,84.8333 11.5,53.1667 11.5,21.5 Z"/></g>
<g><path style="opacity:1" fill="#b7b7b7" d="M 20.5,30.5 C 29.5,30.5 38.5,30.5 47.5,30.5C 47.5,32.5 47.5,34.5 47.5,36.5C 38.5,36.5 29.5,36.5 20.5,36.5C 20.5,34.5 20.5,32.5 20.5,30.5 Z"/></g>
<g><path style="opacity:1" fill="#076daa" d="M 70.5,36.5 C 71.6393,54.1228 71.806,71.7895 71,89.5C 69.2104,95.1253 65.377,97.7919 59.5,97.5C 55.8241,95.9892 53.3241,93.3225 52,89.5C 51.3333,72.1667 51.3333,54.8333 52,37.5C 55.1823,30.5022 60.349,28.6689 67.5,32C 68.8825,33.2708 69.8825,34.7708 70.5,36.5 Z"/></g>
<g><path style="opacity:1" fill="#b7b7b7" d="M 75.5,30.5 C 83.8333,30.5 92.1667,30.5 100.5,30.5C 100.739,32.4672 100.406,34.3005 99.5,36C 91.5069,36.4997 83.5069,36.6664 75.5,36.5C 75.5,34.5 75.5,32.5 75.5,30.5 Z"/></g>
<g><path style="opacity:1" fill="#b9b7b7" d="M 99.5,44.5 C 101.5,44.5 103.5,44.5 105.5,44.5C 105.5,46.5 105.5,48.5 105.5,50.5C 103.5,50.5 101.5,50.5 99.5,50.5C 99.5,48.5 99.5,46.5 99.5,44.5 Z"/></g>
<g><path style="opacity:1" fill="#b9b9b8" d="M 20.5,44.5 C 21.8333,44.5 23.1667,44.5 24.5,44.5C 24.5,46.5 24.5,48.5 24.5,50.5C 23.1667,50.5 21.8333,50.5 20.5,50.5C 20.5,48.5 20.5,46.5 20.5,44.5 Z"/></g>
<g><path style="opacity:1" fill="#b2b6af" d="M 43.5,45.5 C 44.8333,45.5 46.1667,45.5 47.5,45.5C 47.5,47.1667 47.5,48.8333 47.5,50.5C 46.1667,50.5 44.8333,50.5 43.5,50.5C 43.5,48.8333 43.5,47.1667 43.5,45.5 Z"/></g>
<g><path style="opacity:1" fill="#b8bcb9" d="M 75.5,44.5 C 76.8333,44.5 78.1667,44.5 79.5,44.5C 79.5,46.5 79.5,48.5 79.5,50.5C 78.1667,50.5 76.8333,50.5 75.5,50.5C 75.5,48.5 75.5,46.5 75.5,44.5 Z"/></g>
<g><path style="opacity:1" fill="#066cac" d="M 93.5,48.5 C 95.0269,48.427 96.0269,49.0937 96.5,50.5C 95.5489,51.9187 95.2155,53.5853 95.5,55.5C 96.5,55.5 97.5,55.5 98.5,55.5C 98.5,61.1667 98.5,66.8333 98.5,72.5C 97.1145,78.21 93.4478,80.8767 87.5,80.5C 85.246,79.8763 83.5794,78.543 82.5,76.5C 81.5664,72.0725 80.8997,67.5725 80.5,63C 80.8333,60.1667 81.1667,57.3333 81.5,54.5C 82.2807,53.2634 83.2807,52.2634 84.5,51.5C 85.5237,52.8532 86.857,53.5198 88.5,53.5C 88.5,51.8333 88.5,50.1667 88.5,48.5C 90.1667,48.5 91.8333,48.5 93.5,48.5 Z"/></g>
<g><path style="opacity:1" fill="#186e9e" d="M 93.5,48.5 C 91.8333,48.5 90.1667,48.5 88.5,48.5C 88.5,50.1667 88.5,51.8333 88.5,53.5C 86.857,53.5198 85.5237,52.8532 84.5,51.5C 83.2807,52.2634 82.2807,53.2634 81.5,54.5C 81.1667,57.3333 80.8333,60.1667 80.5,63C 80.8997,67.5725 81.5664,72.0725 82.5,76.5C 80.7073,74.5739 79.7073,72.2406 79.5,69.5C 79.334,64.1563 79.5006,58.8229 80,53.5C 83.0279,47.6744 87.5279,46.0077 93.5,48.5 Z"/></g>
<g><path style="opacity:1" fill="#0b6eab" d="M 43.5,54.5 C 43.5,60.8333 43.5,67.1667 43.5,73.5C 40.996,78.3265 36.996,80.6598 31.5,80.5C 27.3915,78.8875 24.8915,75.8875 24,71.5C 23.3333,65.8333 23.3333,60.1667 24,54.5C 26.8273,47.955 31.6606,45.7883 38.5,48C 40.7899,49.7772 42.4566,51.9438 43.5,54.5 Z"/></g>
<g><path style="opacity:1" fill="#9acbe9" d="M 70.5,36.5 C 71.1667,36.8333 71.8333,37.1667 72.5,37.5C 72.6666,55.8364 72.4999,74.1697 72,92.5C 69.0411,97.0631 64.8744,99.0631 59.5,98.5C 59.5,98.1667 59.5,97.8333 59.5,97.5C 65.377,97.7919 69.2104,95.1253 71,89.5C 71.806,71.7895 71.6393,54.1228 70.5,36.5 Z"/></g>
<g><path style="opacity:1" fill="#1f709e" d="M 96.5,50.5 C 97.5585,51.6002 98.3918,52.9336 99,54.5C 99.8192,60.6812 99.6525,66.6812 98.5,72.5C 98.5,66.8333 98.5,61.1667 98.5,55.5C 97.5,55.5 96.5,55.5 95.5,55.5C 95.2155,53.5853 95.5489,51.9187 96.5,50.5 Z"/></g>
<g><path style="opacity:1" fill="#b9d6e2" d="M 43.5,54.5 C 44.7899,55.0577 45.6232,56.0577 46,57.5C 46.829,64.2342 46.4957,70.9008 45,77.5C 43.8415,79.4909 42.3415,81.1576 40.5,82.5C 38.0268,83.7969 35.6934,83.7969 33.5,82.5C 39.3038,82.3677 42.6371,79.3677 43.5,73.5C 43.5,67.1667 43.5,60.8333 43.5,54.5 Z"/></g>
<g><path style="opacity:1" fill="#b1d2ee" d="M 43.5,73.5 C 42.6371,79.3677 39.3038,82.3677 33.5,82.5C 32.1667,82.5 31.5,81.8333 31.5,80.5C 36.996,80.6598 40.996,78.3265 43.5,73.5 Z"/></g>
<g><path style="opacity:1" fill="#bfdeec" d="M 87.5,80.5 C 93.4478,80.8767 97.1145,78.21 98.5,72.5C 99.6525,66.6812 99.8192,60.6812 99,54.5C 98.3918,52.9336 97.5585,51.6002 96.5,50.5C 96.0269,49.0937 95.0269,48.427 93.5,48.5C 87.5279,46.0077 83.0279,47.6744 80,53.5C 79.5006,58.8229 79.334,64.1563 79.5,69.5C 77.6569,61.9223 78.4902,54.589 82,47.5C 84.4105,46.8606 86.9105,46.5272 89.5,46.5C 92.3713,46.6177 95.038,47.2844 97.5,48.5C 98.6622,50.8244 99.8289,53.1578 101,55.5C 101.667,62.5 101.667,69.5 101,76.5C 97.5914,82.5426 93.0914,83.8759 87.5,80.5 Z"/></g>
<g><path style="opacity:1" fill="#b9bab7" d="M 77.5,88.5 C 82.1667,88.5 86.8333,88.5 91.5,88.5C 91.5,90.5 91.5,92.5 91.5,94.5C 86.8333,94.5 82.1667,94.5 77.5,94.5C 77.5,92.5 77.5,90.5 77.5,88.5 Z"/></g>
<g><path style="opacity:1" fill="#c8dcea" d="M 72.5,37.5 C 73.29,38.6085 73.79,39.9419 74,41.5C 74.6667,58.1667 74.6667,74.8333 74,91.5C 72.907,94.5859 71.0737,97.0859 68.5,99C 65.3035,99.8045 62.3035,99.6378 59.5,98.5C 64.8744,99.0631 69.0411,97.0631 72,92.5C 72.4999,74.1697 72.6666,55.8364 72.5,37.5 Z"/></g>
<g><path style="opacity:1" fill="#b9b9b9" d="M 20.5,88.5 C 29.5,88.5 38.5,88.5 47.5,88.5C 47.5,90.5 47.5,92.5 47.5,94.5C 38.5,94.5 29.5,94.5 20.5,94.5C 20.5,92.5 20.5,90.5 20.5,88.5 Z"/></g>
<g><path style="opacity:1" fill="#b6b7b7" d="M 98.5,88.5 C 100.5,88.5 102.5,88.5 104.5,88.5C 104.5,90.1667 104.5,91.8333 104.5,93.5C 102.5,93.5 100.5,93.5 98.5,93.5C 98.5,91.8333 98.5,90.1667 98.5,88.5 Z"/></g>
<g><path style="opacity:1" fill="#b7b7b7" d="M 21.5,102.5 C 27.5092,102.334 33.5092,102.501 39.5,103C 40.4061,104.699 40.7394,106.533 40.5,108.5C 33.8333,108.5 27.1667,108.5 20.5,108.5C 20.3253,106.379 20.6586,104.379 21.5,102.5 Z"/></g>
<g><path style="opacity:1" fill="#b9baba" d="M 48.5,102.5 C 62.1667,102.5 75.8333,102.5 89.5,102.5C 89.5,104.5 89.5,106.5 89.5,108.5C 75.8333,108.5 62.1667,108.5 48.5,108.5C 48.5,106.5 48.5,104.5 48.5,102.5 Z"/></g>
<g><path style="opacity:0.962" fill="#989898" d="M 11.5,117.5 C 45.8333,117.5 80.1667,117.5 114.5,117.5C 114.5,118.5 114.5,119.5 114.5,120.5C 80.1667,120.5 45.8333,120.5 11.5,120.5C 11.5,119.5 11.5,118.5 11.5,117.5 Z"/></g>
</svg>

<svg xmlns="http://www.w3.org/2000/svg" width="128" height="128" style="shape-rendering:geometricPrecision;text-rendering:geometricPrecision;image-rendering:optimizeQuality;fill-rule:evenodd;clip-rule:evenodd"><path fill="#f1f1f1" d="M113.5 6.5v13h-102v-13z" style="opacity:.986"/><path fill="#1c1c1c" d="M114.5 6.5q1.438.68 2.5 2 .75 55.998.5 112h-3z" style="opacity:.405"/><path fill="#a2a2a2" d="M74.5 9.5q2.77-.417 4 2a10.9 10.9 0 0 0-4.5 5q-3.123-3.79.5-7" style="opacity:1"/><path fill="#a1a1a1" d="M47.5 9.5q8.406.264 1.5 4-1.4 5.673-2.5-.5a11 11 0 0 1 1-3.5" style="opacity:1"/><path fill="#a4a4a4" d="M21.5 9.5q8.406.264 1.5 4-1.4 5.673-2.5-.5a11 11 0 0 1 1-3.5" style="opacity:1"/><path fill="#a3a3a3" d="M100.5 9.5q3.271-.324 5 2.5-4.098.597-5.5 4.5-2.956-3.695.5-7" style="opacity:1"/><path fill="#bfbfbf" d="M113.5 6.5h1v111h-103v-1h102v-95h-102v-2h102z" style="opacity:1"/><path fill="#f0f1f1" d="M11.5 21.5h102v95h-102z" style="opacity:.997"/><path fill="#b7b7b7" d="M20.5 30.5h27v6h-27z" style="opacity:1"/><path fill="#076daa" d="M70.5 36.5a482 482 0 0 1 .5 53q-2.685 8.438-11.5 8-5.514-2.265-7.5-8a676 676 0 0 1 0-52q4.773-10.497 15.5-5.5a11.1 11.1 0 0 1 3 4.5" style="opacity:1"/><path fill="#b7b7b7" d="M75.5 30.5h25q.359 2.95-1 5.5-11.99.75-24 .5z" style="opacity:1"/><path fill="#b9b7b7" d="M99.5 44.5h6v6h-6z" style="opacity:1"/><path fill="#b9b9b8" d="M20.5 44.5h4v6h-4z" style="opacity:1"/><path fill="#b2b6af" d="M43.5 45.5h4v5h-4z" style="opacity:1"/><path fill="#b8bcb9" d="M75.5 44.5h4v6h-4z" style="opacity:1"/><path fill="#066cac" d="M93.5 48.5q2.29-.11 3 2-1.426 2.128-1 5h3v17q-2.078 8.565-11 8-3.38-.936-5-4-1.4-6.64-2-13.5l1-8.5a9.4 9.4 0 0 1 3-3q1.536 2.03 4 2v-5z" style="opacity:1"/><path fill="#186e9e" d="M93.5 48.5h-5v5q-2.464.03-4-2a9.4 9.4 0 0 0-3 3l-1 8.5q.6 6.86 2 13.5-2.69-2.89-3-7-.25-8.016.5-16 4.542-8.739 13.5-5" style="opacity:1"/><path fill="#0b6eab" d="M43.5 54.5v19q-3.756 7.24-12 7-6.162-2.418-7.5-9a72.5 72.5 0 0 1 0-17q4.24-9.818 14.5-6.5 3.435 2.666 5 6.5" style="opacity:1"/><path fill="#9acbe9" d="m70.5 36.5 2 1q.25 27.504-.5 55-4.439 6.845-12.5 6v-1q8.815.438 11.5-8 1.21-26.565-.5-53" style="opacity:1"/><path fill="#1f709e" d="M96.5 50.5q1.588 1.65 2.5 4 1.23 9.272-.5 18v-17h-3q-.426-2.872 1-5" style="opacity:1"/><path fill="#b9d6e2" d="M43.5 54.5q1.935.837 2.5 3a57.8 57.8 0 0 1-1 20 16.2 16.2 0 0 1-4.5 5q-3.71 1.945-7 0 8.706-.198 10-9z" style="opacity:1"/><path fill="#b1d2ee" d="M43.5 73.5q-1.294 8.802-10 9-2 0-2-2 8.244.24 12-7" style="opacity:1"/><path fill="#bfdeec" d="M87.5 80.5q8.922.565 11-8 1.73-8.728.5-18-.912-2.35-2.5-4-.71-2.11-3-2-8.958-3.739-13.5 5-.75 7.984-.5 16-2.765-11.367 2.5-22 3.615-.96 7.5-1 4.307.177 8 2l3.5 7q1 10.5 0 21-5.114 9.064-13.5 4" style="opacity:1"/><path fill="#b9bab7" d="M77.5 88.5h14v6h-14z" style="opacity:1"/><path fill="#c8dcea" d="M72.5 37.5q1.185 1.662 1.5 4a625 625 0 0 1 0 50q-1.64 4.629-5.5 7.5-4.795 1.207-9-.5 8.061.845 12.5-6 .75-27.496.5-55" style="opacity:1"/><path fill="#b9b9b9" d="M20.5 88.5h27v6h-27z" style="opacity:1"/><path fill="#b6b7b7" d="M98.5 88.5h6v5h-6z" style="opacity:1"/><path fill="#b7b7b7" d="M21.5 102.5q9.015-.249 18 .5 1.36 2.549 1 5.5h-20q-.262-3.181 1-6" style="opacity:1"/><path fill="#b9baba" d="M48.5 102.5h41v6h-41z" style="opacity:1"/><path fill="#989898" d="M11.5 117.5h103v3h-103z" style="opacity:.962"/></svg>
